packages/tokens/icons/announcement/size16Px.svg

<svg viewBox="0 0 16 16" fill="none" xmlns="http://www.w3.org/2000/svg" width="1em" height="1em"><path d="M4.29571 12.1213L3.64039 9.5H5.21922C5.44866 9.5 5.64865 9.65615 5.70429 9.87873L6.2043 11.8787C6.28319 12.1943 6.04451 12.5 5.71922 12.5H4.78078C4.55134 12.5 4.35135 12.3439 4.29571 12.1213Z" stroke="currentColor"/><path d="M4 5.5H5.5V9.5H4C3.72386 9.5 3.5 9.27614 3.5 9V6C3.5 5.72386 3.72386 5.5 4 5.5Z" stroke="currentColor"/><path d="M8.77639 3.67082L5.5 5.30902V9.69098L8.77639 11.3292C9.10884 11.4954 9.5 11.2537 9.5 10.882V4.11803C9.5 3.74634 9.10884 3.5046 8.77639 3.67082Z" stroke="currentColor"/><path d="M9.5 9.5V5.5H9.75C10.6682 5.5 11.5 6.34457 11.5 7.5C11.5 8.65543 10.6682 9.5 9.75 9.5H9.5Z" stroke="currentColor"/><path d="M3.5 9.5V5.5H3.25C2.33175 5.5 1.5 6.34457 1.5 7.5C1.5 8.65543 2.33175 9.5 3.25 9.5H3.5Z" stroke="currentColor"/><path d="M14.5 7.5H13.5" stroke="currentColor" stroke-linecap="round"/><path d="M13.5 5.5L14.5 4.5" stroke="currentColor" stroke-linecap="round"/><path d="M13.5 9.5L14.5 10.5" stroke="currentColor" stroke-linecap="round"/></svg>

<svg xmlns="http://www.w3.org/2000/svg" fill="none" viewBox="0 0 16 16" width="1em" height="1em"><path stroke="currentColor" d="M4.296 12.121 3.64 9.5h1.58a.5.5 0 0 1 .484.379l.5 2a.5.5 0 0 1-.485.621h-.938a.5.5 0 0 1-.485-.379ZM4 5.5h1.5v4H4a.5.5 0 0 1-.5-.5V6a.5.5 0 0 1 .5-.5Z"/><path stroke="currentColor" d="M8.776 3.67 5.5 5.31v4.382l3.276 1.638a.5.5 0 0 0 .724-.447V4.118a.5.5 0 0 0-.724-.447ZM9.5 9.5v-4h.25c.918 0 1.75.845 1.75 2s-.832 2-1.75 2H9.5Zm-6 0v-4h-.25c-.918 0-1.75.845-1.75 2s.832 2 1.75 2h.25Z"/><path stroke="currentColor" stroke-linecap="round" d="M14.5 7.5h-1m0-2 1-1m-1 5 1 1"/></svg>
